packages/core/src/svgs/tokens/mono/KINE.svg

<svg width="24" height="24" viewBox="0 0 24 24" fill="none" xmlns="http://www.w3.org/2000/svg">
<path fill-rule="evenodd" clip-rule="evenodd" d="M3.3335 2H9.33355V8.00001H3.3335V2ZM3.3335 16.0001H9.33355V22H3.3335V16.0001ZM8.66684 12.0001L15.3335 2H20.6669L14.3336 12.0001L20.6669 22H15.3335L8.66684 12.0001Z" fill="white"/>
</svg>

<svg xmlns="http://www.w3.org/2000/svg" width="24" height="24" fill="none" viewBox="0 0 24 24">
    <path fill="#fff" fill-rule="evenodd" d="M3.334 2h6v6h-6zm0 14h6v6h-6zm5.333-4 6.667-10h5.333l-6.333 10 6.333 10h-5.334z" clip-rule="evenodd"/>
</svg>
